!!!ONB: MCCC : IFC0056_02 : Extracted Monophonic Melody
!!!COM: Chopin, Frédéric
!!!OPR: Mazurkas
!!!OMV: 2
!!!SCT: Op.59
!!!ODT: 1845///
**kern
*thru
*staff1
*Ipiano
*>A
*clefG2
*k[]
*C:
*M3/4
*MM180
=5
8.c
16e
4g
4a
=6
8.f#
16d
4f
4e
=7
8.cc
16b
4g
4a
=8
8.f#
16d
4f
8.e
16d
=9
4c
4g
4a
=10
8.f#
16d
4f
4e
=11
8.cc
16b
4g
4a
=12
8.f#
16d
4f
8.e
16a
=13
2.g
=14
8.cc
16b
4g
4a
=15
8.g
16f#
4d
4f
=16
4e
4c
[4g
=17
8.g]
16b
4dd
4ee
=18
8.cc
16b
4g
4a
=19
8.g
16f#
4d
4e
=20
2c
[4g
=21
8.g]
16b
4dd
4ee
=22
8.cc
16b
4g
4a
=23
8.g
16f#
4d
4f
=24
4e
4c
4g
=25
2.g
=26
8.cc
16b
4g
4a
=27
8.g
16f#
4d
4e
=28
2c
4r
=29
*>B
4r
4e
4a
=30
4r
4g#
4g#
=31
8.f
16e
4a
4a
=32
4g#
4b
4ee
=33
4r
4e
4a
=34
4r
4g#
4g#
=35
8.f
16e
4a
8.b
16cc
=36
4a
4ee
4aa
=37
*>B
4r
4e
4a
=38
4r
4g#
4g#
=39
8.f
16e
4a
4a
=40
4g#
4b
4ee
=41
4r
4e
4a
=42
4r
4g#
4g#
=43
8.f
16e
4a
8.b
16cc
=44
4a
4ee
4aa
=45
*>C
4r
8dd#
8cc#
8dd#
8ee
=46
8ff#
8gg#
4.ee
8b
=47
4dd
8cc#
8b
8cc#
8dd
=48
8ee
8ff#
4.dd
8a
=49
4cc
8b
8a
8b
8cc
=50
8dd
8ee
4cc
4b
=51
4r
4e
4e
=52
4r
4a
4aa
=53
4r
8dd#
8cc#
8dd#
8ee
=54
8ff#
8gg#
4.ee
8b
=55
4dd
8cc#
8b
8cc#
8dd
=56
8ee
8ff#
4.dd
8a
=57
4cc
8b
8a
8b
8cc
=58
8dd
8ee
4cc
4b
=59
4r
4e
4e
=60
4r
4a
4aa
=61
8g
8a
8b
8cc
8dd
8ee
=62
8ff#
8gg
8ff#
8dd
8ee
8cc
=63
8dd
8ee
4dd
8cc
8a
=64
2g
4cc
=65
8g
8a
8b
8cc
8dd
8ee
=66
8ff#
8gg
8ff#
8dd
8ee
8cc
=67
8dd
8ee
8dd
8b
8cc
8a
=68
[2.g
=69
8g]
8a
8b
8cc
8dd
8ee
=70
8ff#
8gg
8ff#
8dd
8ee
8cc
=71
8dd
8ee
4dd
8cc
8a
=72
2g
4cc
=73
8g
8a
8b
8cc
8dd
8ee
=74
8ff#
8gg
8ff#
8dd
8ee
8cc
=75
8dd
8ee
8dd
8b
8cc
8a
=76
[2.g
=77
8.g]
16b
4dd
4ee
=78
8.cc
16b
4g
4a
=79
8.g
16f#
4d
4f
=80
4e
4c
4g[
=81
8.g]
16b
4dd
4ee
=82
8.cc
16b
4g
4a
=83
8.g
16f#
4d
4e
=84
2c
[4g
=85
8.g]
16b
4dd
4ee
=86
8.cc
16b
4g
4a
=87
8.g
16f#
4d
4f
=88
4e
4c
4g[
=89
8.g]
16b
4dd
4ee
=90
8.cc
16b
4g
4a
=91
8.g
16f#
4d
4e
=92
4c
4ccc
4r
==
*-
